X:170
T:Hey for Honesty, or Neighbour downright
M:C |
L:1/8
B:Thompson's Compleat Collection of 200 Favourite Country Dances, vol. 2 (London, 1765)
Z:Transcribed and edited by Flynn Titford-Mock, 2007
Z:abc's:AK/Fiddler's Companion
K:G
g2 fe d2 cB | cABc {c}B2 AG | g2 fe a2 ag | fa A^c d4 :: {de} =f2 ed "tr"cB c2 | {de}e2 dc "tr"BA B2 |
B2 AG d2 cB | gdcB "tr"B2 A2 | g2 fe d2 cB | eEFG {G}F2 ED | E2 cE F2 dc | BdDF G4 :|

